X:5867
T:Gan Ainm
M:2/4
L:1/8
R:March
K:D
f2B2|Bcde|f2B2|B2Bc|d2d2|c2d2|e2e2|d2e2|f2B2|Bcde|\
f2B2|B2Bc|d2d2|cB A2|1B2BA|Bcde:|2B2BA|B2Bc|:d2f2|\
ed c2|d2f2|ed c2|aece|a2=c2|B2g2|f2^a2|b2f2|dedc|B2Bc|\
d2ff|gfed|cB A2|B2BA|B2Bc:|
